src/ui/key.svg

<?xml version="1.0" encoding="UTF-8"?><svg xmlns="http://www.w3.org/2000/svg" viewBox="0 0 32 32"><defs><style>.uuid-f4a5bb56-bc19-4fc0-8ddf-ebec385e9d3a{fill:none;}.uuid-f4a5bb56-bc19-4fc0-8ddf-ebec385e9d3a,.uuid-f0bc485e-cdf3-4d16-8a1c-bbe70cc0e70c{stroke-width:0px;}.uuid-f0bc485e-cdf3-4d16-8a1c-bbe70cc0e70c{fill:#151515;}</style></defs><g id="uuid-1d99db16-3f75-4363-a68e-a39260505942"><rect class="uuid-f4a5bb56-bc19-4fc0-8ddf-ebec385e9d3a" x="0" width="32" height="32"/></g><g id="uuid-05187ad0-4e1b-467e-be85-82624b17b02b"><path class="uuid-f0bc485e-cdf3-4d16-8a1c-bbe70cc0e70c" d="M30.707,5.293l-2.6465-2.6465c-.584-.585-1.5371-.585-2.1211,0l-14.7552,14.7552c-1.1689-.876-2.6147-1.4017-4.1843-1.4017-3.8594,0-7,3.1401-7,7s3.1406,7,7,7,7-3.1401,7-7c0-1.5697-.5257-3.0154-1.4017-4.1843l6.4017-6.4017,2.293,2.293c.1953.1953.4512.293.707.293s.5117-.0977.707-.293c.3906-.3906.3906-1.0234,0-1.4141l-2.293-2.293,2.5859-2.5859,4.293,4.293c.1953.1953.4512.293.707.293s.5117-.0977.707-.293c.3906-.3906.3906-1.0234,0-1.4141l-4.293-4.293,2.5859-2.5859,2.293,2.293c.3906.3906,1.0234.3906,1.4141,0s.3906-1.0234,0-1.4141ZM7,28c-2.7568,0-5-2.2432-5-5s2.2432-5,5-5,5,2.2432,5,5-2.2432,5-5,5Z"/></g></svg>

<svg xmlns="http://www.w3.org/2000/svg" viewBox="0 0 32 32">
  <path d="M0 0h32v32H0z" fill="none"/>
  <path d="M30.707 5.293 28.06 2.646a1.501 1.501 0 0 0-2.12 0L11.183 17.402A6.954 6.954 0 0 0 7 16c-3.86 0-7 3.14-7 7s3.14 7 7 7 7-3.14 7-7c0-1.57-.526-3.015-1.402-4.184L19 12.414l2.293 2.293a.997.997 0 0 0 1.414 0 1 1 0 0 0 0-1.414L20.414 11 23 8.414l4.293 4.293a.997.997 0 0 0 1.414 0 1 1 0 0 0 0-1.414L24.414 7 27 4.414l2.293 2.293a1 1 0 1 0 1.414-1.414ZM7 28c-2.757 0-5-2.243-5-5s2.243-5 5-5 5 2.243 5 5-2.243 5-5 5Z" fill="#151515"/>
</svg>
